www/assets/icons/history.svg

<svg xmlns="http://www.w3.org/2000/svg" width="24" height="24" viewBox="0 0 24 24" fill='currentColor'><path d="M13.5 3a9 9 0 0 0-9 9h-3l3.89 3.89.07.14L9.5 12h-3c0-3.87 3.13-7 7-7s7 3.13 7 7-3.13 7-7 7c-1.93 0-3.68-.79-4.94-2.06l-1.42 1.42A8.95 8.95 0 0 0 13.5 21a9 9 0 0 0 0-18m-1 5v5l4.28 2.54.72-1.21-3.5-2.08V8z"/></svg>

<svg width="24" height="24" viewBox="0 0 24 24" xmlns="http://www.w3.org/2000/svg" fill='currentColor'><path d="M13.5 3C8.53 3 4.5 7.03 4.5 12H1.5L5.39 15.89L5.46 16.03L9.5 12H6.5C6.5 8.13 9.63 5 13.5 5C17.37 5 20.5 8.13 20.5 12C20.5 15.87 17.37 19 13.5 19C11.57 19 9.82 18.21 8.56 16.94L7.14 18.36C8.77 19.99 11.01 21 13.5 21C18.47 21 22.5 16.97 22.5 12C22.5 7.03 18.47 3 13.5 3ZM12.5 8V13L16.78 15.54L17.5 14.33L14 12.25V8H12.5Z"/></svg>
